packages/foundations/assets/icons/functional/images/transportation/bus_16.svg

<svg width="16" height="16" viewBox="0 0 16 16" fill="none" xmlns="http://www.w3.org/2000/svg">
<g clip-path="url(#clip0_187_872)">
<path fill-rule="evenodd" clip-rule="evenodd" d="M10.7489 1.60001C11.5199 1.60001 11.9307 1.67933 12.3587 1.90826C12.7589 2.12227 13.0777 2.44109 13.2917 2.84125C13.4713 3.177 13.5588 3.50211 13.5882 3.99875L14.4 4.00001V7.20001H13.6V11.7745C13.6 12.1616 13.5538 12.5045 13.3986 12.768C13.2433 13.0315 13.0319 13.2542 12.8 13.3792V14.4H10.8V13.6H5.19998V14.4H3.19998L3.2 13.381C2.94505 13.237 2.73992 13.0271 2.60138 12.768C2.4704 12.5231 2.41443 12.2875 2.40249 11.9337L2.39998 7.20001H1.59998V4.00001L2.41175 3.99875C2.44115 3.50211 2.52867 3.177 2.70823 2.84125C2.92224 2.44109 3.24106 2.12227 3.64122 1.90826C4.03361 1.69841 4.46889 1.60001 5.11553 1.6017L10.7489 1.60001ZM5.18414 10.2H3.98414V11.4H5.18414V10.2ZM12.0708 10.2H10.8708V11.4H12.0708V10.2ZM10.8844 3.2008C10.5876 3.20009 5.37305 3.2008 5.11553 3.2008C4.85801 3.2008 4.51361 3.2008 4.26133 3.41608C4.00905 3.63137 4.00267 4.00171 4.00077 4.31556C3.9995 4.5248 4.00004 5.9525 4.00241 8.59867C5.50536 8.71433 6.83818 8.77205 7.99998 8.77205C9.16177 8.77205 10.4946 8.71433 11.9975 8.59867C11.9986 5.96791 11.9992 4.5402 11.9992 4.31556C11.9992 3.97859 11.9924 3.63066 11.7429 3.41608C11.4934 3.2015 11.1812 3.2015 10.8844 3.2008ZM10.4 4.00001V5.36001H5.59998V4.00001H10.4Z" fill="#1A1C1F"/>
</g>
<defs>
<clipPath id="clip0_187_872">
<rect width="16" height="16" fill="white"/>
</clipPath>
</defs>
</svg>

<svg xmlns="http://www.w3.org/2000/svg" width="16" height="16" fill="none"><g clip-path="url(#a)"><path fill="#1A1C1F" fill-rule="evenodd" d="M10.749 1.6c.77 0 1.182.08 1.61.308.4.214.719.533.933.933.18.336.267.661.296 1.158L14.4 4v3.2h-.8v4.575c0 .387-.046.73-.201.993s-.367.486-.599.611V14.4h-2v-.8H5.2v.8h-2v-1.019a1.53 1.53 0 0 1-.599-.613c-.13-.245-.187-.48-.199-.834L2.4 7.2h-.8V4l.812-.001c.03-.497.117-.822.296-1.158.214-.4.533-.719.933-.933.393-.21.828-.308 1.475-.306zm-5.565 8.6h-1.2v1.2h1.2zm6.887 0h-1.2v1.2h1.2zm-1.187-7H5.116c-.258 0-.602 0-.855.216-.252.215-.258.586-.26.9q-.002.313.001 4.283 2.255.173 3.998.173t3.998-.173l.001-4.283c0-.337-.007-.685-.256-.9-.25-.215-.562-.215-.859-.215M10.4 4v1.36H5.6V4z" clip-rule="evenodd"/></g><defs><clipPath id="a"><path fill="#fff" d="M0 0h16v16H0z"/></clipPath></defs></svg>
